status/symbolic/media-playlist-shuffle-symbolic-rtl.svg

<?xml version="1.0" encoding="UTF-8" standalone="no"?>
<svg
   height="16"
   width="16"
   version="1.1"
   id="svg6"
   xmlns="http://www.w3.org/2000/svg"
   xmlns:svg="http://www.w3.org/2000/svg">
  <defs
     id="defs10" />
  <path
     id="rect955-6-7-2-1"
     style="font-variation-settings:normal;vector-effect:none;fill:#555761;fill-opacity:1;stroke:none;stroke-width:4;stroke-linecap:round;stroke-linejoin:round;stroke-miterlimit:4;stroke-dasharray:none;stroke-dashoffset:0;stroke-opacity:1;-inkscape-stroke:none;stop-color:#000000"
     d="M 4.4557513,1.0351562 C 4.7076422,1.0475415 4.9638762,1.2403125 4.9713763,1.5 V 3 c 5.9951277,0.00354 3.9969801,8 7.9960937,8 h 1.486328 c 0.28748,-2.41e-4 0.513672,0.313878 0.513672,0.558594 v 0.882812 C 14.96747,12.686122 14.702214,13 14.414736,13 H 12.96747 C 6.969463,13 8.9660659,5.0053102 4.9713763,5 v 1.5 c -0.012,0.369 -0.5245,0.605 -0.8125,0.375 l -3,-2.5 c -0.21183505,-0.205126 -0.21183505,-0.544874 0,-0.75 l 3,-2.5 c 0.071231,-0.05587 0.1575569,-0.087244 0.2480469,-0.089844 0.016688,-8.124e-4 0.032036,-8.255e-4 0.048828,0 z M 14.414736,3 c 0.287478,0 0.552734,0.3138777 0.552734,0.5585938 V 4.4414062 C 14.96747,4.6861223 14.741278,5.000241 14.453798,5 H 12.96747 C 12.04471,5 11.443029,5.4289275 10.987001,6.0839844 10.727631,5.4202744 10.412764,4.7164122 9.9577047,4.0488281 10.65879,3.4126629 11.606906,3 12.96747,3 Z M 4.4069232,9.0351562 C 4.6739232,9.0221564 4.9633762,9.223 4.9713763,9.5 V 11 C 5.8920772,10.998776 6.4925352,10.570355 6.9479391,9.9160156 7.2073095,10.579726 7.5221767,11.283588 7.9772358,11.951172 7.2768117,12.586838 6.3299627,12.999197 4.9713763,13 v 1.5 c -0.012,0.369 -0.5245,0.605 -0.8125,0.375 l -3,-2.5 c -0.21183505,-0.205126 -0.21183505,-0.544874 0,-0.75 l 3,-2.5 c 0.071231,-0.05587 0.1575569,-0.087244 0.2480469,-0.089844 z" />
</svg>

<svg
        xmlns='http://www.w3.org/2000/svg'
        xmlns:svg='http://www.w3.org/2000/svg'
        id='svg6'
        width='16'
        height='16'>
  <path
          id='rect955-6-7-2-1'
          fill='url(#gpa:foreground) #555761'
          fill-opacity='1'
          fill-rule='nonzero'
          stroke='none'
          stroke-opacity='1'
          stroke-width='4'
          stroke-linecap='round'
          stroke-linejoin='round'
          stroke-miterlimit='4'
          stroke-dasharray='none'
          stroke-dashoffset='0'
          d='M 4.45575 1.03516 C 4.70764 1.04754, 4.96388 1.24031, 4.97138 1.5 L 4.97138 3 C 10.9665 3.00354, 8.96836 11, 12.9675 11 L 14.4538 11 C 14.7413 10.9998, 14.9675 11.3139, 14.9675 11.5586 L 14.9675 12.4414 C 14.9675 12.6861, 14.7022 13, 14.4147 13 L 12.9675 13 C 6.96946 13, 8.96607 5.00531, 4.97138 5 L 4.97138 6.5 C 4.95938 6.869, 4.44688 7.105, 4.15888 6.875 L 1.15888 4.375 C 0.947041 4.16987, 0.947041 3.83013, 1.15888 3.625 L 4.15888 1.125 C 4.23011 1.06913, 4.31643 1.03776, 4.40692 1.03516 C 4.42361 1.03434, 4.43896 1.03433, 4.45575 1.03516 Z M 14.4147 3 C 14.7022 3, 14.9675 3.31388, 14.9675 3.55859 L 14.9675 4.44141 C 14.9675 4.68612, 14.7413 5.00024, 14.4538 5 L 12.9675 5 C 12.0447 5, 11.443 5.42893, 10.987 6.08398 C 10.7276 5.42027, 10.4128 4.71641, 9.9577 4.04883 C 10.6588 3.41266, 11.6069 3, 12.9675 3 Z M 4.40692 9.03516 C 4.67392 9.02216, 4.96338 9.223, 4.97138 9.5 L 4.97138 11 C 5.89208 10.9988, 6.49254 10.5704, 6.94794 9.91602 C 7.20731 10.5797, 7.52218 11.2836, 7.97724 11.9512 C 7.27681 12.5868, 6.32996 12.9992, 4.97138 13 L 4.97138 14.5 C 4.95938 14.869, 4.44688 15.105, 4.15888 14.875 L 1.15888 12.375 C 0.947041 12.1699, 0.947041 11.8301, 1.15888 11.625 L 4.15888 9.125 C 4.23011 9.06913, 4.31643 9.03776, 4.40692 9.03516 Z'
          class="foreground">
  </path>
</svg>
